algorithms/cpu-scheduling/round-robin/adding-items-to-queue.svg

<svg width="707" height="748" viewBox="0 0 707 748" fill="none" xmlns="http://www.w3.org/2000/svg">
<rect x="516" y="112" width="136" height="136" rx="27" stroke="#DBDBDB" stroke-width="2"/>
<rect x="516" y="504" width="136" height="136" rx="27" stroke="#DBDBDB" stroke-width="2"/>
<rect x="360" y="504" width="136" height="136" rx="27" stroke="#DBDBDB" stroke-width="2"/>
<rect x="360" y="112" width="136" height="136" rx="27" stroke="#DBDBDB" stroke-width="2" stroke-dasharray="20 20"/>
<rect x="204" y="112" width="136" height="136" rx="27" stroke="#DBDBDB" stroke-width="2" stroke-dasharray="20 20"/>
<rect x="48" y="112" width="136" height="136" rx="27" stroke="#DBDBDB" stroke-width="2" stroke-dasharray="20 20"/>
<rect x="1" y="82" width="705" height="197" rx="27" stroke="#DBDBDB" stroke-width="2"/>
<rect x="1" y="474" width="705" height="197" rx="27" stroke="#DBDBDB" stroke-width="2"/>
<rect x="204" y="504" width="136" height="136" rx="27" stroke="#DBDBDB" stroke-width="2" stroke-dasharray="20 20"/>
<rect x="48" y="504" width="136" height="136" rx="27" stroke="#DBDBDB" stroke-width="2" stroke-dasharray="20 20"/>
<path d="M565.523 196V166.909H575.352C577.634 166.909 579.5 167.321 580.949 168.145C582.407 168.959 583.487 170.062 584.188 171.455C584.888 172.847 585.239 174.4 585.239 176.114C585.239 177.828 584.888 179.385 584.188 180.787C583.496 182.188 582.426 183.306 580.977 184.139C579.528 184.963 577.672 185.375 575.409 185.375H568.364V182.25H575.295C576.858 182.25 578.113 181.98 579.06 181.44C580.007 180.901 580.693 180.171 581.119 179.253C581.555 178.325 581.773 177.278 581.773 176.114C581.773 174.949 581.555 173.907 581.119 172.989C580.693 172.07 580.002 171.35 579.045 170.83C578.089 170.299 576.82 170.034 575.239 170.034H569.045V196H565.523ZM600.629 166.909V196H597.107V170.602H596.936L589.834 175.318V171.739L597.107 166.909H600.629Z" fill="white"/>
<path d="M564.531 588V558.909H574.36C576.642 558.909 578.508 559.321 579.957 560.145C581.415 560.959 582.495 562.062 583.195 563.455C583.896 564.847 584.246 566.4 584.246 568.114C584.246 569.828 583.896 571.385 583.195 572.787C582.504 574.188 581.434 575.306 579.985 576.139C578.536 576.963 576.68 577.375 574.417 577.375H567.371V574.25H574.303C575.866 574.25 577.121 573.98 578.067 573.44C579.014 572.901 579.701 572.171 580.127 571.253C580.563 570.325 580.781 569.278 580.781 568.114C580.781 566.949 580.563 565.907 580.127 564.989C579.701 564.07 579.01 563.35 578.053 562.83C577.097 562.299 575.828 562.034 574.246 562.034H568.053V588H564.531ZM599.637 558.909V588H596.114V562.602H595.944L588.842 567.318V563.739L596.114 558.909H599.637Z" fill="white"/>
<path d="M405.718 588V558.909H415.548C417.83 558.909 419.695 559.321 421.144 560.145C422.603 560.959 423.682 562.062 424.383 563.455C425.084 564.847 425.434 566.4 425.434 568.114C425.434 569.828 425.084 571.385 424.383 572.787C423.692 574.188 422.621 575.306 421.173 576.139C419.724 576.963 417.868 577.375 415.604 577.375H408.559V574.25H415.491C417.053 574.25 418.308 573.98 419.255 573.44C420.202 572.901 420.888 572.171 421.315 571.253C421.75 570.325 421.968 569.278 421.968 568.114C421.968 566.949 421.75 565.907 421.315 564.989C420.888 564.07 420.197 563.35 419.241 562.83C418.284 562.299 417.015 562.034 415.434 562.034H409.241V588H405.718ZM430.597 588V585.443L440.2 574.932C441.326 573.701 442.254 572.631 442.984 571.722C443.713 570.803 444.253 569.941 444.603 569.136C444.963 568.322 445.143 567.47 445.143 566.58C445.143 565.557 444.897 564.671 444.404 563.923C443.921 563.175 443.258 562.598 442.415 562.19C441.573 561.783 440.626 561.58 439.575 561.58C438.457 561.58 437.482 561.812 436.648 562.276C435.825 562.73 435.185 563.369 434.731 564.193C434.286 565.017 434.063 565.983 434.063 567.091H430.711C430.711 565.386 431.104 563.89 431.89 562.602C432.676 561.314 433.746 560.311 435.1 559.591C436.464 558.871 437.993 558.511 439.688 558.511C441.393 558.511 442.903 558.871 444.219 559.591C445.536 560.311 446.568 561.281 447.316 562.503C448.064 563.724 448.438 565.083 448.438 566.58C448.438 567.65 448.244 568.696 447.856 569.719C447.477 570.732 446.814 571.864 445.867 573.114C444.93 574.354 443.628 575.869 441.961 577.659L435.427 584.648V584.875H448.95V588H430.597Z" fill="white"/>
<path d="M433.568 181.966V185.091H420.841V181.966H433.568Z" fill="white"/>
<path d="M277.568 573.966V577.091H264.841V573.966H277.568Z" fill="white"/>
<path d="M277.568 181.966V185.091H264.841V181.966H277.568Z" fill="white"/>
<path d="M121.568 573.966V577.091H108.841V573.966H121.568Z" fill="white"/>
<path d="M121.568 181.966V185.091H108.841V181.966H121.568Z" fill="white"/>
<path d="M305.833 29.9091H309.697L312.935 34.1705L313.788 35.3068L318.617 41.7273H314.754L311.572 37.4659L310.776 36.3864L305.833 29.9091ZM319.81 24.4545C319.81 27.5227 319.256 30.1742 318.148 32.4091C317.04 34.6439 315.521 36.3674 313.589 37.5795C311.657 38.7917 309.451 39.3977 306.969 39.3977C304.488 39.3977 302.282 38.7917 300.35 37.5795C298.418 36.3674 296.898 34.6439 295.79 32.4091C294.683 30.1742 294.129 27.5227 294.129 24.4545C294.129 21.3864 294.683 18.7348 295.79 16.5C296.898 14.2652 298.418 12.5417 300.35 11.3295C302.282 10.1174 304.488 9.51136 306.969 9.51136C309.451 9.51136 311.657 10.1174 313.589 11.3295C315.521 12.5417 317.04 14.2652 318.148 16.5C319.256 18.7348 319.81 21.3864 319.81 24.4545ZM316.401 24.4545C316.401 21.9356 315.98 19.8097 315.137 18.0767C314.304 16.3438 313.172 15.0322 311.742 14.142C310.322 13.2519 308.731 12.8068 306.969 12.8068C305.208 12.8068 303.612 13.2519 302.183 14.142C300.762 15.0322 299.63 16.3438 298.788 18.0767C297.954 19.8097 297.538 21.9356 297.538 24.4545C297.538 26.9735 297.954 29.0994 298.788 30.8324C299.63 32.5653 300.762 33.8769 302.183 34.767C303.612 35.6572 305.208 36.1023 306.969 36.1023C308.731 36.1023 310.322 35.6572 311.742 34.767C313.172 33.8769 314.304 32.5653 315.137 30.8324C315.98 29.0994 316.401 26.9735 316.401 24.4545ZM339.029 30.0795V17.1818H342.381V39H339.029V35.3068H338.802C338.29 36.4148 337.495 37.357 336.415 38.1335C335.336 38.9006 333.972 39.2841 332.325 39.2841C330.961 39.2841 329.749 38.9858 328.688 38.3892C327.628 37.7831 326.794 36.8741 326.188 35.6619C325.582 34.4403 325.279 32.9015 325.279 31.0455V17.1818H328.631V30.8182C328.631 32.4091 329.076 33.678 329.967 34.625C330.866 35.572 332.012 36.0455 333.404 36.0455C334.237 36.0455 335.085 35.8324 335.947 35.4062C336.818 34.9801 337.547 34.3267 338.134 33.446C338.731 32.5653 339.029 31.4432 339.029 30.0795ZM357.669 39.4545C355.567 39.4545 353.753 38.9905 352.229 38.0625C350.714 37.125 349.544 35.8182 348.72 34.142C347.906 32.4564 347.499 30.4962 347.499 28.2614C347.499 26.0265 347.906 24.0568 348.72 22.3523C349.544 20.6383 350.69 19.303 352.158 18.3466C353.635 17.3807 355.358 16.8977 357.328 16.8977C358.464 16.8977 359.587 17.0871 360.695 17.4659C361.803 17.8447 362.811 18.4602 363.72 19.3125C364.629 20.1553 365.354 21.2727 365.893 22.6648C366.433 24.0568 366.703 25.7708 366.703 27.8068V29.2273H349.885V26.3295H363.294C363.294 25.0985 363.048 24 362.555 23.0341C362.072 22.0682 361.381 21.3059 360.482 20.7472C359.591 20.1884 358.54 19.9091 357.328 19.9091C355.993 19.9091 354.838 20.2405 353.862 20.9034C352.896 21.5568 352.153 22.4091 351.632 23.4602C351.111 24.5114 350.851 25.6383 350.851 26.8409V28.7727C350.851 30.4205 351.135 31.8172 351.703 32.9631C352.281 34.0994 353.081 34.9659 354.104 35.5625C355.126 36.1496 356.315 36.4432 357.669 36.4432C358.55 36.4432 359.345 36.3201 360.055 36.0739C360.775 35.8182 361.395 35.4394 361.916 34.9375C362.437 34.4261 362.839 33.7917 363.124 33.0341L366.362 33.9432C366.021 35.0417 365.448 36.0076 364.643 36.8409C363.839 37.6648 362.844 38.3087 361.661 38.7727C360.477 39.2273 359.146 39.4545 357.669 39.4545ZM385.553 30.0795V17.1818H388.905V39H385.553V35.3068H385.325C384.814 36.4148 384.018 37.357 382.939 38.1335C381.859 38.9006 380.496 39.2841 378.848 39.2841C377.484 39.2841 376.272 38.9858 375.212 38.3892C374.151 37.7831 373.318 36.8741 372.712 35.6619C372.106 34.4403 371.803 32.9015 371.803 31.0455V17.1818H375.155V30.8182C375.155 32.4091 375.6 33.678 376.49 34.625C377.39 35.572 378.536 36.0455 379.928 36.0455C380.761 36.0455 381.608 35.8324 382.47 35.4062C383.341 34.9801 384.071 34.3267 384.658 33.446C385.254 32.5653 385.553 31.4432 385.553 30.0795ZM404.192 39.4545C402.09 39.4545 400.277 38.9905 398.752 38.0625C397.237 37.125 396.067 35.8182 395.244 34.142C394.429 32.4564 394.022 30.4962 394.022 28.2614C394.022 26.0265 394.429 24.0568 395.244 22.3523C396.067 20.6383 397.213 19.303 398.681 18.3466C400.158 17.3807 401.882 16.8977 403.852 16.8977C404.988 16.8977 406.11 17.0871 407.218 17.4659C408.326 17.8447 409.335 18.4602 410.244 19.3125C411.153 20.1553 411.877 21.2727 412.417 22.6648C412.957 24.0568 413.227 25.7708 413.227 27.8068V29.2273H396.408V26.3295H409.817C409.817 25.0985 409.571 24 409.079 23.0341C408.596 22.0682 407.905 21.3059 407.005 20.7472C406.115 20.1884 405.064 19.9091 403.852 19.9091C402.516 19.9091 401.361 20.2405 400.386 20.9034C399.42 21.5568 398.676 22.4091 398.156 23.4602C397.635 24.5114 397.374 25.6383 397.374 26.8409V28.7727C397.374 30.4205 397.658 31.8172 398.227 32.9631C398.804 34.0994 399.604 34.9659 400.627 35.5625C401.65 36.1496 402.838 36.4432 404.192 36.4432C405.073 36.4432 405.869 36.3201 406.579 36.0739C407.299 35.8182 407.919 35.4394 408.44 34.9375C408.96 34.4261 409.363 33.7917 409.647 33.0341L412.886 33.9432C412.545 35.0417 411.972 36.0076 411.167 36.8409C410.362 37.6648 409.368 38.3087 408.184 38.7727C407 39.2273 405.67 39.4545 404.192 39.4545Z" fill="white"/>
<path d="M305.833 421.909H309.697L312.935 426.17L313.788 427.307L318.617 433.727H314.754L311.572 429.466L310.776 428.386L305.833 421.909ZM319.81 416.455C319.81 419.523 319.256 422.174 318.148 424.409C317.04 426.644 315.521 428.367 313.589 429.58C311.657 430.792 309.451 431.398 306.969 431.398C304.488 431.398 302.282 430.792 300.35 429.58C298.418 428.367 296.898 426.644 295.79 424.409C294.683 422.174 294.129 419.523 294.129 416.455C294.129 413.386 294.683 410.735 295.79 408.5C296.898 406.265 298.418 404.542 300.35 403.33C302.282 402.117 304.488 401.511 306.969 401.511C309.451 401.511 311.657 402.117 313.589 403.33C315.521 404.542 317.04 406.265 318.148 408.5C319.256 410.735 319.81 413.386 319.81 416.455ZM316.401 416.455C316.401 413.936 315.98 411.81 315.137 410.077C314.304 408.344 313.172 407.032 311.742 406.142C310.322 405.252 308.731 404.807 306.969 404.807C305.208 404.807 303.612 405.252 302.183 406.142C300.762 407.032 299.63 408.344 298.788 410.077C297.954 411.81 297.538 413.936 297.538 416.455C297.538 418.973 297.954 421.099 298.788 422.832C299.63 424.565 300.762 425.877 302.183 426.767C303.612 427.657 305.208 428.102 306.969 428.102C308.731 428.102 310.322 427.657 311.742 426.767C313.172 425.877 314.304 424.565 315.137 422.832C315.98 421.099 316.401 418.973 316.401 416.455ZM339.029 422.08V409.182H342.381V431H339.029V427.307H338.802C338.29 428.415 337.495 429.357 336.415 430.134C335.336 430.901 333.972 431.284 332.325 431.284C330.961 431.284 329.749 430.986 328.688 430.389C327.628 429.783 326.794 428.874 326.188 427.662C325.582 426.44 325.279 424.902 325.279 423.045V409.182H328.631V422.818C328.631 424.409 329.076 425.678 329.967 426.625C330.866 427.572 332.012 428.045 333.404 428.045C334.237 428.045 335.085 427.832 335.947 427.406C336.818 426.98 337.547 426.327 338.134 425.446C338.731 424.565 339.029 423.443 339.029 422.08ZM357.669 431.455C355.567 431.455 353.753 430.991 352.229 430.062C350.714 429.125 349.544 427.818 348.72 426.142C347.906 424.456 347.499 422.496 347.499 420.261C347.499 418.027 347.906 416.057 348.72 414.352C349.544 412.638 350.69 411.303 352.158 410.347C353.635 409.381 355.358 408.898 357.328 408.898C358.464 408.898 359.587 409.087 360.695 409.466C361.803 409.845 362.811 410.46 363.72 411.312C364.629 412.155 365.354 413.273 365.893 414.665C366.433 416.057 366.703 417.771 366.703 419.807V421.227H349.885V418.33H363.294C363.294 417.098 363.048 416 362.555 415.034C362.072 414.068 361.381 413.306 360.482 412.747C359.591 412.188 358.54 411.909 357.328 411.909C355.993 411.909 354.838 412.241 353.862 412.903C352.896 413.557 352.153 414.409 351.632 415.46C351.111 416.511 350.851 417.638 350.851 418.841V420.773C350.851 422.42 351.135 423.817 351.703 424.963C352.281 426.099 353.081 426.966 354.104 427.562C355.126 428.15 356.315 428.443 357.669 428.443C358.55 428.443 359.345 428.32 360.055 428.074C360.775 427.818 361.395 427.439 361.916 426.938C362.437 426.426 362.839 425.792 363.124 425.034L366.362 425.943C366.021 427.042 365.448 428.008 364.643 428.841C363.839 429.665 362.844 430.309 361.661 430.773C360.477 431.227 359.146 431.455 357.669 431.455ZM385.553 422.08V409.182H388.905V431H385.553V427.307H385.325C384.814 428.415 384.018 429.357 382.939 430.134C381.859 430.901 380.496 431.284 378.848 431.284C377.484 431.284 376.272 430.986 375.212 430.389C374.151 429.783 373.318 428.874 372.712 427.662C372.106 426.44 371.803 424.902 371.803 423.045V409.182H375.155V422.818C375.155 424.409 375.6 425.678 376.49 426.625C377.39 427.572 378.536 428.045 379.928 428.045C380.761 428.045 381.608 427.832 382.47 427.406C383.341 426.98 384.071 426.327 384.658 425.446C385.254 424.565 385.553 423.443 385.553 422.08ZM404.192 431.455C402.09 431.455 400.277 430.991 398.752 430.062C397.237 429.125 396.067 427.818 395.244 426.142C394.429 424.456 394.022 422.496 394.022 420.261C394.022 418.027 394.429 416.057 395.244 414.352C396.067 412.638 397.213 411.303 398.681 410.347C400.158 409.381 401.882 408.898 403.852 408.898C404.988 408.898 406.11 409.087 407.218 409.466C408.326 409.845 409.335 410.46 410.244 411.312C411.153 412.155 411.877 413.273 412.417 414.665C412.957 416.057 413.227 417.771 413.227 419.807V421.227H396.408V418.33H409.817C409.817 417.098 409.571 416 409.079 415.034C408.596 414.068 407.905 413.306 407.005 412.747C406.115 412.188 405.064 411.909 403.852 411.909C402.516 411.909 401.361 412.241 400.386 412.903C399.42 413.557 398.676 414.409 398.156 415.46C397.635 416.511 397.374 417.638 397.374 418.841V420.773C397.374 422.42 397.658 423.817 398.227 424.963C398.804 426.099 399.604 426.966 400.627 427.562C401.65 428.15 402.838 428.443 404.192 428.443C405.073 428.443 405.869 428.32 406.579 428.074C407.299 427.818 407.919 427.439 408.44 426.938C408.96 426.426 409.363 425.792 409.647 425.034L412.886 425.943C412.545 427.042 411.972 428.008 411.167 428.841C410.362 429.665 409.368 430.309 408.184 430.773C407 431.227 405.67 431.455 404.192 431.455Z" fill="white"/>
<path d="M622.375 699.25L638.625 715.5L622.375 731.75" stroke="#DBDBDB" stroke-width="4" stroke-linecap="round" stroke-linejoin="round"/>
<path d="M622.375 307.25L638.625 323.5L622.375 339.75" stroke="#DBDBDB" stroke-width="4" stroke-linecap="round" stroke-linejoin="round"/>
<line x1="44" y1="715.5" x2="636" y2="715.5" stroke="#DBDBDB" stroke-width="5"/>
<line x1="44" y1="323.5" x2="636" y2="323.5" stroke="#DBDBDB" stroke-width="5"/>
</svg>

<svg xmlns="http://www.w3.org/2000/svg" width="707" height="748" fill="none" viewBox="0 0 707 748"><rect width="136" height="136" x="516" y="112" stroke="#dbdbdb" stroke-width="2" rx="27"/><rect width="136" height="136" x="516" y="504" stroke="#dbdbdb" stroke-width="2" rx="27"/><rect width="136" height="136" x="360" y="504" stroke="#dbdbdb" stroke-width="2" rx="27"/><rect width="136" height="136" x="360" y="112" stroke="#dbdbdb" stroke-dasharray="20 20" stroke-width="2" rx="27"/><rect width="136" height="136" x="204" y="112" stroke="#dbdbdb" stroke-dasharray="20 20" stroke-width="2" rx="27"/><rect width="136" height="136" x="48" y="112" stroke="#dbdbdb" stroke-dasharray="20 20" stroke-width="2" rx="27"/><rect width="705" height="197" x="1" y="82" stroke="#dbdbdb" stroke-width="2" rx="27"/><rect width="705" height="197" x="1" y="474" stroke="#dbdbdb" stroke-width="2" rx="27"/><rect width="136" height="136" x="204" y="504" stroke="#dbdbdb" stroke-dasharray="20 20" stroke-width="2" rx="27"/><rect width="136" height="136" x="48" y="504" stroke="#dbdbdb" stroke-dasharray="20 20" stroke-width="2" rx="27"/><path fill="#fff" d="M565.523 196v-29.091h9.829q3.423 0 5.597 1.236 2.187 1.22 3.239 3.31 1.05 2.088 1.051 4.659t-1.051 4.673q-1.038 2.102-3.211 3.352-2.173 1.236-5.568 1.236h-7.045v-3.125h6.931q2.345 0 3.765-.81t2.059-2.187q.654-1.393.654-3.139 0-1.748-.654-3.125-.639-1.379-2.074-2.159-1.434-.796-3.806-.796h-6.194V196zm35.106-29.091V196h-3.522v-25.398h-.171l-7.102 4.716v-3.579l7.273-4.83zM564.531 588v-29.091h9.829q3.423 0 5.597 1.236 2.188 1.22 3.238 3.31 1.051 2.088 1.051 4.659t-1.051 4.673q-1.037 2.102-3.21 3.352-2.173 1.236-5.568 1.236h-7.046v-3.125h6.932q2.345 0 3.764-.81 1.42-.81 2.06-2.187.654-1.393.654-3.139 0-1.748-.654-3.125-.639-1.379-2.074-2.159-1.434-.796-3.807-.796h-6.193V588zm35.106-29.091V588h-3.523v-25.398h-.17l-7.102 4.716v-3.579l7.272-4.83zM405.718 588v-29.091h9.83q3.423 0 5.596 1.236 2.188 1.22 3.239 3.31 1.051 2.088 1.051 4.659t-1.051 4.673q-1.037 2.102-3.21 3.352-2.173 1.236-5.569 1.236h-7.045v-3.125h6.932q2.343 0 3.764-.81t2.06-2.187q.653-1.393.653-3.139 0-1.748-.653-3.125-.64-1.379-2.074-2.159-1.435-.796-3.807-.796h-6.193V588zm24.879 0v-2.557l9.603-10.511a68 68 0 0 0 2.784-3.21q1.094-1.378 1.619-2.586.54-1.221.54-2.556 0-1.535-.739-2.657-.725-1.122-1.989-1.733-1.263-.61-2.84-.61-1.676 0-2.927.696a4.8 4.8 0 0 0-1.917 1.917q-.668 1.236-.668 2.898h-3.352q0-2.557 1.179-4.489a8.2 8.2 0 0 1 3.21-3.011q2.046-1.08 4.588-1.08 2.557 0 4.531 1.08 1.975 1.08 3.097 2.912t1.122 4.077q0 1.605-.582 3.139-.568 1.52-1.989 3.395-1.406 1.86-3.906 4.545l-6.534 6.989v.227h13.523V588zM433.568 181.966v3.125h-12.727v-3.125zM277.568 573.966v3.125h-12.727v-3.125zM277.568 181.966v3.125h-12.727v-3.125zM121.568 573.966v3.125h-12.727v-3.125zM121.568 181.966v3.125h-12.727v-3.125zM305.833 29.91h3.864l3.238 4.26.853 1.137 4.829 6.42h-3.863l-3.182-4.261-.796-1.08zm13.977-5.456q0 4.603-1.662 7.955t-4.559 5.17q-2.897 1.82-6.62 1.819-3.721 0-6.619-1.819t-4.56-5.17q-1.66-3.352-1.661-7.954 0-4.603 1.661-7.955t4.56-5.17q2.898-1.82 6.619-1.819 3.723 0 6.62 1.819t4.559 5.17 1.662 7.954m-3.409 0q0-3.777-1.264-6.377-1.25-2.6-3.395-3.935-2.13-1.335-4.773-1.335t-4.786 1.335q-2.132 1.335-3.395 3.935-1.25 2.6-1.25 6.377 0 3.78 1.25 6.378 1.263 2.6 3.395 3.935 2.144 1.335 4.786 1.335 2.643 0 4.773-1.335 2.145-1.335 3.395-3.935 1.264-2.599 1.264-6.378m22.628 5.625V17.182h3.352V39h-3.352v-3.693h-.227q-.768 1.662-2.387 2.826-1.619 1.151-4.09 1.151-2.046 0-3.637-.895-1.59-.909-2.5-2.727-.909-1.832-.909-4.616V17.182h3.352v13.636q0 2.387 1.336 3.807 1.349 1.42 3.437 1.42 1.25 0 2.543-.639 1.307-.64 2.187-1.96.895-1.32.895-3.366m18.64 9.376q-3.154 0-5.44-1.392-2.273-1.407-3.509-3.921-1.221-2.529-1.221-5.88 0-3.353 1.221-5.91 1.236-2.571 3.438-4.005 2.215-1.45 5.17-1.45 1.705 0 3.367.569 1.662.568 3.025 1.846 1.364 1.264 2.173 3.353.81 2.088.81 5.142v1.42h-16.818V26.33h13.409q0-1.846-.739-3.295a5.57 5.57 0 0 0-2.073-2.287q-1.336-.838-3.154-.838-2.002 0-3.466.994a6.54 6.54 0 0 0-2.23 2.557 7.5 7.5 0 0 0-.781 3.38v1.933q0 2.472.852 4.19.867 1.704 2.401 2.6 1.533.88 3.565.88 1.321 0 2.386-.37a5.1 5.1 0 0 0 1.861-1.136q.781-.766 1.208-1.903l3.238.91a7.2 7.2 0 0 1-1.719 2.897q-1.207 1.236-2.982 1.932-1.776.681-3.992.681m27.884-9.375V17.182h3.352V39h-3.352v-3.693h-.228q-.767 1.662-2.386 2.826-1.62 1.151-4.091 1.151-2.046 0-3.636-.895-1.591-.909-2.5-2.727-.909-1.832-.909-4.616V17.182h3.352v13.636q0 2.387 1.335 3.807 1.35 1.42 3.438 1.42 1.25 0 2.542-.639 1.307-.64 2.188-1.96.895-1.32.895-3.366m18.639 9.375q-3.153 0-5.44-1.392-2.273-1.407-3.508-3.921-1.222-2.529-1.222-5.88 0-3.353 1.222-5.91 1.235-2.571 3.437-4.005 2.216-1.45 5.171-1.45 1.704 0 3.366.569 1.662.568 3.026 1.846 1.363 1.264 2.173 3.353.81 2.088.81 5.142v1.42h-16.819V26.33h13.409q0-1.846-.738-3.295a5.56 5.56 0 0 0-2.074-2.287q-1.335-.838-3.153-.838-2.004 0-3.466.994a6.53 6.53 0 0 0-2.23 2.557 7.5 7.5 0 0 0-.782 3.38v1.933q0 2.472.853 4.19.865 1.704 2.4 2.6 1.534.88 3.565.88 1.322 0 2.387-.37a5.1 5.1 0 0 0 1.861-1.136q.78-.766 1.207-1.903l3.239.91a7.2 7.2 0 0 1-1.719 2.897q-1.207 1.236-2.983 1.932-1.776.681-3.992.681M305.833 421.909h3.864l3.238 4.261.853 1.137 4.829 6.42h-3.863l-3.182-4.261-.796-1.08zm13.977-5.454q0 4.602-1.662 7.954t-4.559 5.171-6.62 1.818q-3.721 0-6.619-1.818t-4.56-5.171q-1.66-3.352-1.661-7.954 0-4.603 1.661-7.955t4.56-5.17q2.898-1.82 6.619-1.819 3.723 0 6.62 1.819t4.559 5.17 1.662 7.955m-3.409 0q0-3.778-1.264-6.378-1.25-2.6-3.395-3.935-2.13-1.335-4.773-1.335t-4.786 1.335q-2.132 1.335-3.395 3.935-1.25 2.6-1.25 6.378t1.25 6.377q1.263 2.6 3.395 3.935 2.144 1.335 4.786 1.335 2.643 0 4.773-1.335 2.145-1.335 3.395-3.935 1.264-2.6 1.264-6.377m22.628 5.625v-12.898h3.352V431h-3.352v-3.693h-.227q-.768 1.662-2.387 2.827-1.619 1.15-4.09 1.15-2.046 0-3.637-.895-1.59-.909-2.5-2.727-.909-1.832-.909-4.617v-13.863h3.352v13.636q0 2.387 1.336 3.807 1.349 1.42 3.437 1.42 1.25 0 2.543-.639 1.307-.639 2.187-1.96.895-1.321.895-3.366m18.64 9.375q-3.154 0-5.44-1.393-2.273-1.406-3.509-3.92-1.221-2.529-1.221-5.881 0-3.351 1.221-5.909 1.236-2.571 3.438-4.005 2.215-1.449 5.17-1.449 1.705 0 3.367.568t3.025 1.846q1.364 1.265 2.173 3.353.81 2.088.81 5.142v1.42h-16.818v-2.897h13.409q0-1.848-.739-3.296a5.57 5.57 0 0 0-2.073-2.287q-1.336-.838-3.154-.838-2.002 0-3.466.994a6.55 6.55 0 0 0-2.23 2.557 7.5 7.5 0 0 0-.781 3.381v1.932q0 2.47.852 4.19.867 1.704 2.401 2.599 1.533.881 3.565.881 1.321 0 2.386-.369a5.1 5.1 0 0 0 1.861-1.136q.781-.767 1.208-1.904l3.238.909a7.2 7.2 0 0 1-1.719 2.898q-1.207 1.236-2.982 1.932-1.776.682-3.992.682m27.884-9.375v-12.898h3.352V431h-3.352v-3.693h-.228q-.767 1.662-2.386 2.827-1.62 1.15-4.091 1.15-2.046 0-3.636-.895-1.591-.909-2.5-2.727-.909-1.832-.909-4.617v-13.863h3.352v13.636q0 2.387 1.335 3.807 1.35 1.42 3.438 1.42 1.25 0 2.542-.639 1.307-.639 2.188-1.96.895-1.321.895-3.366m18.639 9.375q-3.153 0-5.44-1.393-2.273-1.406-3.508-3.92-1.222-2.529-1.222-5.881 0-3.351 1.222-5.909 1.235-2.571 3.437-4.005 2.216-1.449 5.171-1.449 1.704 0 3.366.568t3.026 1.846q1.363 1.265 2.173 3.353t.81 5.142v1.42h-16.819v-2.897h13.409q0-1.848-.738-3.296a5.57 5.57 0 0 0-2.074-2.287q-1.335-.838-3.153-.838-2.004 0-3.466.994a6.54 6.54 0 0 0-2.23 2.557 7.5 7.5 0 0 0-.782 3.381v1.932q0 2.47.853 4.19.865 1.704 2.4 2.599 1.534.881 3.565.881 1.322 0 2.387-.369a5.1 5.1 0 0 0 1.861-1.136q.78-.767 1.207-1.904l3.239.909a7.2 7.2 0 0 1-1.719 2.898q-1.207 1.236-2.983 1.932-1.776.682-3.992.682"/><path stroke="#dbdbdb" stroke-linecap="round" stroke-linejoin="round" stroke-width="4" d="m622.375 699.25 16.25 16.25-16.25 16.25M622.375 307.25l16.25 16.25-16.25 16.25"/><path stroke="#dbdbdb" stroke-width="5" d="M44 715.5h592M44 323.5h592"/></svg>
